X: 231
T: No_86_Bird_Dance_Song_(i).krn
N: Derived from No_86_Bird_Dance_Song_(i).krn
%%abc-version 2.0
%%abcx-abcm2ps-target-version 5.9.1 (29 Sep 2008)
%%abc-creator hum2abc beta
%%abcx-conversion-date 2019/03/15 08:38:45
%%humdrum-veritas 4083324181
%%humdrum-veritas-data 4081463989
%%linebreak <none>
%%barnumbers 0
L: 1/8
M: 3/4
K: F clef=bass
[K:clef=bass][M:3/4]C4C/C/(C/B,/) ||  
[M:2/4]A,2(A,F,) | 
C3/C/ (CB,) ||  
[M:3/4]A,F,F,2z2 ||  
[M:2/4]A,2C2 ]|:  
A,2A,2 | 
F,2F,2 | 
B,A, (B,A,) | 
A,F,F,2- | 
F,2z2 | 
F,2(F,C,) | 
F,4 :|]  



% FRACTION = 0.499634BUT SHOULD BE 0
% FRACTION = 0.499634BUT SHOULD BE 0
